<?xml version="1.0" encoding="UTF-8"?>
<map version="1.10" tiledversion="1.11.0" orientation="orthogonal" renderorder="right-down" width="14" height="23" tilewidth="8" tileheight="8" infinite="0" nextlayerid="2" nextobjectid="1">
 <tileset firstgid="1" name="Tileset" tilewidth="8" tileheight="8" tilecount="14" columns="14">
  <image source="FrameTileset.png" width="160" height="8"/>
 </tileset>
 <layer id="1" name="Capa de patrones 1" width="14" height="23">
  <data encoding="csv">
1,1,1,1,1,1,2,3,1,1,1,1,1,1
1,1,1,1,1,1,4,5,1,1,1,1,1,1
6,7,8,9,7,8,10,11,8,9,7,8,9,12
2,3,1,2,3,1,2,3,1,2,3,1,2,3
4,5,1,4,5,1,4,5,1,4,5,1,4,5
13,14,8,10,15,1,16,15,1,13,14,8,10,15
1,1,1,2,3,1,2,3,1,1,1,1,2,3
1,1,1,4,5,1,4,5,1,1,1,1,4,5
6,7,8,10,11,8,10,15,1,6,7,8,10,15
2,3,1,2,3,1,2,3,1,2,3,1,2,3
4,5,1,4,5,1,4,5,1,4,5,1,4,5
16,11,8,17,18,1,16,11,8,10,11,8,10,15
2,3,1,1,1,1,2,3,1,2,3,1,2,3
4,5,1,1,1,1,4,5,1,4,5,1,4,5
16,15,1,6,7,8,10,15,1,13,14,8,10,15
2,3,1,2,3,1,2,3,1,1,1,1,2,3
4,5,1,4,5,1,4,5,1,1,1,1,4,5
16,15,1,16,15,1,13,14,8,9,12,1,16,15
2,3,1,2,3,1,2,3,1,2,3,1,2,3
4,5,1,4,5,1,4,5,1,4,5,1,4,5
13,14,8,10,11,8,10,15,1,16,11,8,17,18
1,1,1,2,3,1,2,3,1,2,3,1,1,1
1,1,1,4,5,1,4,5,1,4,5,1,1,1
</data>
 </layer>
</map>
